img/slpdb.svg

<?xml version="1.0" encoding="UTF-8"?>
<svg width="271px" height="146px" viewBox="0 0 271 146" version="1.1" xmlns="http://www.w3.org/2000/svg" xmlns:xlink="http://www.w3.org/1999/xlink">
    <!-- Generator: Sketch 53 (72520) - https://sketchapp.com -->
    <title>Group 5</title>
    <desc>Created with Sketch.</desc>
    <defs>
        <linearGradient x1="50%" y1="0%" x2="50%" y2="100%" id="linearGradient-1">
            <stop stop-color="#96DFA6" stop-opacity="0" offset="0%"></stop>
            <stop stop-color="#5DBC6D" offset="100%"></stop>
        </linearGradient>
        <linearGradient x1="73.7177999%" y1="100%" x2="44.8725408%" y2="-34.4536189%" id="linearGradient-2">
            <stop stop-color="#96DFA6" stop-opacity="0" offset="0%"></stop>
            <stop stop-color="#5DBC6D" offset="100%"></stop>
        </linearGradient>
        <linearGradient x1="10.3946958%" y1="11.2364875%" x2="74.0190613%" y2="75.3589022%" id="linearGradient-3">
            <stop stop-color="#96DFA6" stop-opacity="0" offset="0%"></stop>
            <stop stop-color="#5DBC6D" offset="100%"></stop>
        </linearGradient>
        <polygon id="path-4" points="0.000218379591 0.195255603 144.806415 0.195255603 144.806415 145.022015 0.000218379591 145.022015"></polygon>
        <linearGradient x1="118.335029%" y1="-7.21919222%" x2="50%" y2="100%" id="linearGradient-6">
            <stop stop-color="#FFFFFF" offset="0%"></stop>
            <stop stop-color="#FFFFFF" offset="100%"></stop>
        </linearGradient>
    </defs>
    <g id="Page-1" stroke="none" stroke-width="1" fill="none" fill-rule="evenodd">
        <g id="Desktop-HD" transform="translate(-614.000000, -263.000000)">
            <g id="Group-5" transform="translate(590.000000, 250.000000)">
                <g id="Group">
                    <ellipse id="Oval" fill="url(#linearGradient-1)" transform="translate(160.582996, 81.500000) rotate(-42.000000) translate(-160.582996, -81.500000) " cx="160.582996" cy="81.5" rx="57.5254661" ry="57.5262129"></ellipse>
                    <ellipse id="Oval-Copy" fill="url(#linearGradient-2)" opacity="0.5" transform="translate(119.838057, 81.500000) rotate(-42.000000) translate(-119.838057, -81.500000) " cx="119.838057" cy="81.5" rx="57.5254661" ry="57.5262129"></ellipse>
                    <ellipse id="Oval-Copy-2" fill="url(#linearGradient-3)" opacity="0.25" transform="translate(81.489879, 81.500000) rotate(-42.000000) translate(-81.489879, -81.500000) " cx="81.4898785" cy="81.5" rx="57.5254661" ry="57.5262129"></ellipse>
                    <g id="Group-8" transform="translate(149.797571, 13.183824)">
                        <g id="Group-3">
                            <mask id="mask-5" fill="white">
                                <use xlink:href="#path-4"></use>
                            </mask>
                            <g id="Clip-2"></g>
                            <path d="M72.4022248,9.70114579 C37.7200517,9.70114579 9.50453495,37.9214774 9.50453495,72.6088319 C9.50453495,107.296186 37.7200517,135.516081 72.4022248,135.516081 C107.085271,135.516081 135.302098,107.296186 135.302098,72.6088319 C135.302098,37.9214774 107.085271,9.70114579 72.4022248,9.70114579 M72.4022248,145.022015 C32.4789415,145.022015 0.000218379591,112.537948 0.000218379591,72.6088319 C0.000218379591,32.6792795 32.4789415,0.195211922 72.4022248,0.195211922 C112.326382,0.195211922 144.806415,32.6792795 144.806415,72.6088319 C144.806415,112.537948 112.326382,145.022015 72.4022248,145.022015" id="Fill-1" fill="#5DBC6D" mask="url(#mask-5)"></path>
                        </g>
                        <ellipse id="Oval" fill="url(#linearGradient-6)" cx="71.902834" cy="73.1102941" rx="63.51417" ry="63.5220588"></ellipse>
                        <path d="M57.5270777,87.7745659 C59.6215928,86.8905981 61.4122359,85.4355985 62.6933429,83.567123 C64.0158469,81.640761 64.7125506,79.3966754 64.7125506,77.0677185 L64.7125506,75.8155396 C64.7125506,74.2730572 64.390182,72.7083777 63.7789148,71.2929847 C62.8888779,69.2199476 61.4144379,67.4541882 59.5260273,66.1872113 C57.5768422,64.8819334 55.3079309,64.1925169 52.9597487,64.1925169 L34.1606384,64.1925169 C33.6991052,64.1925169 33.2706016,64.1063398 32.8482635,63.9313743 C32.2431617,63.6785012 31.7001556,63.2376054 31.3280224,62.6887706 C30.9431178,62.1194797 30.7497848,61.4936079 30.7436192,60.8224714 L30.7436192,59.5663754 C30.7475828,59.1050234 30.8352212,58.6837133 31.0118193,58.2706728 C31.2676884,57.67048 31.7124866,57.1360081 32.2660622,56.766056 C32.8420979,56.3878345 33.4762657,56.1937185 34.1566748,56.1915423 L62.6435783,56.1915423 L62.6435783,47.9411765 L34.1606384,47.9411765 C32.5923944,47.9411765 31.0157829,48.2606409 29.5809784,48.8617042 C27.4847016,49.7448015 25.6980221,51.1989306 24.4169151,53.0682766 C23.0922092,54.9933329 22.3955054,57.2409004 22.399469,59.5663754 L22.399469,60.8172485 C22.399469,62.3619071 22.7196356,63.9270219 23.3269393,65.3402387 C24.2191781,67.4154521 25.6936181,69.1807762 27.5864327,70.4481883 C29.5312138,71.7534662 31.8001251,72.4428827 34.1483073,72.4428827 L52.9474176,72.4428827 C53.4089508,72.4437532 53.8374545,72.529495 54.2597926,72.7040253 C54.8648943,72.9555927 55.4079004,73.3977942 55.7800336,73.9457585 C56.1689017,74.5159199 56.3622348,75.1417917 56.3622348,75.8155396 L56.3622348,77.0677185 C56.3622348,77.5260238 56.2772387,77.9495101 56.0962367,78.3647268 C55.8425696,78.9649196 55.395129,79.4989563 54.8419938,79.8693436 C54.2637561,80.2475651 53.6335519,80.4403754 52.9513812,80.4447278 L17.9757085,80.4447278 L17.9757085,88.6911765 L52.9513812,88.6911765 C54.5363602,88.6911765 56.0733362,88.3825929 57.5270777,87.7745659" id="Fill-4" fill="#5DBC6D"></path>
                        <path d="M93.155185,117.455882 L84.8763268,117.455882 L84.8763268,89.7688719 L79.9636889,89.7688719 C77.633363,89.7688719 75.3812096,89.0791988 73.4517906,87.7689073 C71.5747777,86.4953284 70.1126467,84.7243807 69.2317871,82.6396274 C68.6234392,81.219635 68.3076923,79.6466733 68.3076923,78.0968755 L68.3076923,28.7647059 L76.5856771,28.7647059 L76.5856771,78.0986237 C76.5856771,78.773874 76.7795798,79.4036706 77.163018,79.9749018 C77.5337914,80.5260284 78.0661503,80.9700765 78.668384,81.2218203 C79.0850128,81.3992647 79.5143063,81.4858016 79.9719865,81.4879869 L84.8763268,81.4879869 L84.8763268,68.9768445 C84.8763268,66.6403473 85.5650307,64.3833942 86.8769308,62.4516102 C88.1473427,60.5753322 89.9212901,59.1129455 92.0000666,58.2274716 C93.4394883,57.6134091 94.9658168,57.3026628 96.5414944,57.3026628 L115.375821,57.3026628 C117.706146,57.3026628 119.9583,57.9962694 121.884662,59.3061239 C123.761675,60.5783916 125.225989,62.3515246 126.108596,64.4332185 C126.71083,65.8562703 127.028323,67.4270467 127.028323,68.9768445 L127.028323,78.0968755 C127.032254,80.4355579 126.34355,82.6911999 125.027719,84.623421 C123.757307,86.499699 121.983797,87.9607745 119.908951,88.8484337 C118.465162,89.4589998 116.943201,89.7688719 115.367086,89.7688719 L95.3990408,89.7688719 L95.3990408,81.4879869 L115.367086,81.4879869 C116.043999,81.4836163 116.674619,81.2900009 117.244099,80.9101999 C117.792617,80.5382659 118.234138,80.0019992 118.490055,79.3993 C118.667362,78.9779788 118.749465,78.5549094 118.753832,78.0968755 L118.753832,68.9715998 C118.749465,68.3011571 118.555999,67.6726717 118.176491,67.096633 C117.804845,66.5476916 117.268992,66.1036435 116.666758,65.8497145 C116.250129,65.6744553 115.825203,65.5887925 115.367086,65.5879184 L96.5331968,65.5879184 C95.8650186,65.5901037 95.2339615,65.7837191 94.6649183,66.1648313 C94.1159641,66.5341429 93.6709487,67.0708467 93.4150321,67.6766052 C93.2416551,68.09443 93.155185,68.5196847 93.155185,68.9768445 L93.155185,117.455882 Z" id="Fill-6" fill="#5DBC6D"></path>
                    </g>
                </g>
            </g>
        </g>
    </g>
</svg>

<?xml version="1.0" encoding="utf-8"?>
<!-- Generator: Adobe Illustrator 15.1.0, SVG Export Plug-In . SVG Version: 6.00 Build 0)  -->
<!DOCTYPE svg PUBLIC "-//W3C//DTD SVG 1.1//EN" "http://www.w3.org/Graphics/SVG/1.1/DTD/svg11.dtd">
<svg version="1.1" id="Layer_1" xmlns="http://www.w3.org/2000/svg" xmlns:xlink="http://www.w3.org/1999/xlink" x="0px" y="0px"
	 width="396px" height="146px" viewBox="0 0 396 146" enable-background="new 0 0 396 146" xml:space="preserve">
<title>Group 5</title>
<desc>Created with Sketch.</desc>
<g id="Page-1">
	<g id="Desktop-HD" transform="translate(-614.000000, -263.000000)">
		<g id="Group-5" transform="translate(590.000000, 250.000000)">
			<g id="Group">
				
					<linearGradient id="Oval_2_" gradientUnits="userSpaceOnUse" x1="-235.1724" y1="389.4863" x2="-235.1724" y2="388.4863" gradientTransform="matrix(85.4995 -76.9841 -76.9851 -85.5006 50213.8789 15235.4473)">
					<stop  offset="0" style="stop-color:#96DFA6;stop-opacity:0"/>
					<stop  offset="1" style="stop-color:#5DBC6D"/>
				</linearGradient>
				<ellipse id="Oval" fill="url(#Oval_2_)" cx="160.583" cy="81.5" rx="57.526" ry="57.526"/>
				
					<linearGradient id="Oval-Copy_1_" gradientUnits="userSpaceOnUse" x1="-235.0605" y1="388.46" x2="-235.3489" y2="389.8038" gradientTransform="matrix(85.4995 -76.9841 -76.9851 -85.5006 50173.1328 15235.4473)">
					<stop  offset="0" style="stop-color:#96DFA6;stop-opacity:0"/>
					<stop  offset="1" style="stop-color:#5DBC6D"/>
				</linearGradient>
				
					<ellipse id="Oval-Copy" opacity="0.5" fill="url(#Oval-Copy_1_)" enable-background="new    " cx="119.838" cy="81.5" rx="57.526" ry="57.526"/>
				
					<linearGradient id="Oval-Copy-2_1_" gradientUnits="userSpaceOnUse" x1="-235.5635" y1="389.3789" x2="-234.9272" y2="388.7376" gradientTransform="matrix(85.4995 -76.9841 -76.9851 -85.5006 50134.7852 15235.4473)">
					<stop  offset="0" style="stop-color:#96DFA6;stop-opacity:0"/>
					<stop  offset="1" style="stop-color:#5DBC6D"/>
				</linearGradient>
				
					<ellipse id="Oval-Copy-2" opacity="0.25" fill="url(#Oval-Copy-2_1_)" enable-background="new    " cx="81.49" cy="81.5" rx="57.526" ry="57.526"/>
				<g id="Group-8" transform="translate(149.797571, 13.183824)">
					<g id="Group-3">
						<g id="Clip-2">
						</g>
						<defs>
							<filter id="Adobe_OpacityMaskFilter" filterUnits="userSpaceOnUse" x="0" y="0.195" width="144.806" height="144.827">
								<feColorMatrix  type="matrix" values="1 0 0 0 0  0 1 0 0 0  0 0 1 0 0  0 0 0 1 0"/>
							</filter>
						</defs>
						<mask maskUnits="userSpaceOnUse" x="0" y="0.195" width="144.806" height="144.827" id="mask-5">
							<g filter="url(#Adobe_OpacityMaskFilter)">
								<polygon id="path-4" fill="#FFFFFF" points="0,0.195 144.806,0.195 144.806,145.022 0,145.022 								"/>
							</g>
						</mask>
						<path id="Fill-1" mask="url(#mask-5)" fill="#5DBC6D" d="M72.402,9.701c-34.682,0-62.897,28.221-62.897,62.908
							c0,34.688,28.215,62.907,62.897,62.907c34.684,0,62.9-28.219,62.9-62.907C135.302,37.922,107.085,9.701,72.402,9.701
							 M72.402,145.022C32.479,145.022,0,112.538,0,72.609S32.479,0.195,72.402,0.195c39.925,0,72.404,32.484,72.404,72.414
							S112.326,145.022,72.402,145.022"/>
					</g>
					
						<linearGradient id="Oval_3_" gradientUnits="userSpaceOnUse" x1="-382.7946" y1="377.7029" x2="-383.478" y2="376.6307" gradientTransform="matrix(127.0283 0 0 -127.0441 48755.6445 47967.0156)">
						<stop  offset="0" style="stop-color:#FFFFFF"/>
						<stop  offset="1" style="stop-color:#FFFFFF"/>
					</linearGradient>
					<ellipse id="Oval_1_" fill="url(#Oval_3_)" cx="71.903" cy="73.11" rx="63.515" ry="63.522"/>
					<path id="Fill-4" fill="#5DBC6D" d="M57.527,87.775c2.095-0.885,3.886-2.34,5.166-4.208c1.323-1.927,2.02-4.171,2.02-6.499
						v-1.252c0-1.543-0.322-3.108-0.934-4.523c-0.89-2.073-2.364-3.838-4.252-5.105c-1.949-1.305-4.219-1.995-6.566-1.995h-18.8
						c-0.462,0-0.89-0.086-1.312-0.261c-0.605-0.253-1.148-0.694-1.521-1.243c-0.385-0.569-0.578-1.195-0.584-1.866v-1.256
						c0.004-0.461,0.092-0.882,0.269-1.295c0.256-0.6,0.7-1.135,1.254-1.505c0.576-0.378,1.21-0.572,1.891-0.574h28.487v-8.25H34.16
						c-1.567,0-3.145,0.319-4.579,0.92c-2.097,0.883-3.883,2.337-5.164,4.207c-1.325,1.925-2.021,4.173-2.018,6.498v1.251
						c0,1.545,0.32,3.11,0.928,4.523c0.892,2.075,2.366,3.841,4.259,5.108c1.944,1.306,4.214,1.995,6.562,1.995h18.8
						c0.462,0,0.89,0.086,1.313,0.261c0.604,0.252,1.147,0.694,1.521,1.241c0.389,0.57,0.582,1.197,0.582,1.871v1.252
						c0,0.458-0.086,0.881-0.266,1.297c-0.254,0.6-0.701,1.134-1.255,1.504c-0.578,0.379-1.208,0.571-1.891,0.576H17.976v8.246
						h34.976C54.536,88.691,56.074,88.383,57.527,87.775"/>
					<path id="Fill-6" fill="#5DBC6D" d="M93.156,117.456h-8.279V89.769h-4.912c-2.33,0-4.583-0.689-6.512-2
						c-1.877-1.273-3.34-3.045-4.221-5.13c-0.608-1.42-0.924-2.993-0.924-4.542V28.765h8.277v49.333
						c0,0.675,0.194,1.306,0.578,1.876c0.371,0.552,0.902,0.996,1.505,1.248c0.417,0.177,0.847,0.264,1.304,0.266h4.904V68.977
						c0-2.336,0.689-4.593,2-6.525c1.271-1.876,3.045-3.338,5.124-4.224c1.439-0.614,2.966-0.925,4.541-0.925h18.835
						c2.33,0,4.582,0.694,6.508,2.004c1.877,1.272,3.342,3.045,4.225,5.127c0.602,1.423,0.92,2.994,0.92,4.543v9.121
						c0.004,2.338-0.686,4.594-2.001,6.525c-1.271,1.877-3.044,3.338-5.118,4.226c-1.444,0.61-2.967,0.921-4.543,0.921H95.4v-8.281
						h19.967c0.678-0.004,1.309-0.198,1.877-0.578c0.549-0.371,0.99-0.908,1.246-1.511c0.178-0.421,0.26-0.845,0.264-1.302v-9.126
						c-0.004-0.67-0.197-1.299-0.576-1.875c-0.372-0.549-0.908-0.993-1.51-1.247c-0.417-0.175-0.842-0.261-1.301-0.262H96.533
						c-0.668,0.002-1.299,0.196-1.867,0.577c-0.549,0.369-0.994,0.906-1.25,1.512c-0.174,0.418-0.26,0.843-0.26,1.3V117.456z"/>
				</g>
			</g>
		</g>
	</g>
</g>
</svg>
